X:4101
L:1/4
M:4/4
K:C
 F3 F | F2 F2 | F2 F2 | (A4 | A4) || A3 A | G2 F2 | E F G F/G/ | F D E2 | F4 || F3 F | F2 F2 | 
 F2 F2 | G3 F/E/ | G4 || G3 G | F2 E2 | D E F E | D C D2 | C4 ||

